X: 1
T: Tam's Hunting Horn
C: I.Munro
R: jig
Z: 2006 John Chambers <jc:trillian.mit.edu>
B: Kerr's Thistle Collection
S: printed MS in the Pinewoods Collection
M: 6/8
L: 1/8
K: D
(3A/A/A/ \
| "D"dfA dfA | d2f a2a | "G"b2b "D"a2f | "A7"e3- e2 (3A/A/A/ \
| "A7"ceA ceA | c2e g2g | a2g f2e |1 "D"f3- f2 :|2 "D"d3- d2 ||
|: e/d/ \
| "A7"c>AA e2c | "D"d>AA f2d | "G"gdB dgb | "D"a3- "A7"a2 (3a/a/a/ \
| "D"afd afd | A2d ded | "A7"c2A Ace | "D"d3- d2 :|
